Numix-Circle/48x48/apps/zaz.svg

<?xml version="1.0" encoding="UTF-8" standalone="no"?>
<svg
   xmlns:dc="http://purl.org/dc/elements/1.1/"
   xmlns:cc="http://creativecommons.org/ns#"
   xmlns:rdf="http://www.w3.org/1999/02/22-rdf-syntax-ns#"
   xmlns:svg="http://www.w3.org/2000/svg"
   xmlns="http://www.w3.org/2000/svg"
   xmlns:xlink="http://www.w3.org/1999/xlink"
   xmlns:sodipodi="http://sodipodi.sourceforge.net/DTD/sodipodi-0.dtd"
   xmlns:inkscape="http://www.inkscape.org/namespaces/inkscape"
   viewBox="0 0 48 48"
   id="svg2"
   version="1.1"
   inkscape:version="0.48.4 r9939"
   width="100%"
   height="100%"
   sodipodi:docname="zaz.svg">
  <metadata
     id="metadata73">
    <rdf:RDF>
      <cc:Work
         rdf:about="">
        <dc:format>image/svg+xml</dc:format>
        <dc:type
           rdf:resource="http://purl.org/dc/dcmitype/StillImage" />
      </cc:Work>
    </rdf:RDF>
  </metadata>
  <sodipodi:namedview
     pagecolor="#ffffff"
     bordercolor="#666666"
     borderopacity="1"
     objecttolerance="10"
     gridtolerance="10"
     guidetolerance="10"
     inkscape:pageopacity="0"
     inkscape:pageshadow="2"
     inkscape:window-width="1280"
     inkscape:window-height="960"
     id="namedview71"
     showgrid="false"
     inkscape:zoom="6.9532167"
     inkscape:cx="22.321777"
     inkscape:cy="23.157532"
     inkscape:window-x="0"
     inkscape:window-y="0"
     inkscape:window-maximized="1"
     inkscape:current-layer="svg2" />
  <defs
     id="defs4">
    <linearGradient
       id="linearGradient3764"
       x1="1"
       x2="47"
       gradientUnits="userSpaceOnUse"
       gradientTransform="matrix(0,-1,1,0,-1.5e-6,47.999998)">
      <stop
         stop-color="#dbdbdb"
         stop-opacity="1"
         id="stop7" />
      <stop
         offset="1"
         stop-color="#e5e5e5"
         stop-opacity="1"
         id="stop9" />
    </linearGradient>
    <clipPath
       id="clipPath-560786056">
      <g
         transform="translate(0,-1004.3622)"
         id="g12">
        <path
           d="m -24 13 c 0 1.105 -0.672 2 -1.5 2 -0.828 0 -1.5 -0.895 -1.5 -2 0 -1.105 0.672 -2 1.5 -2 0.828 0 1.5 0.895 1.5 2 z"
           transform="matrix(15.333333,0,0,11.5,414.99999,878.8622)"
           fill="#1890d0"
           id="path14" />
      </g>
    </clipPath>
    <clipPath
       id="clipPath-573971749">
      <g
         transform="translate(0,-1004.3622)"
         id="g17">
        <path
           d="m -24 13 c 0 1.105 -0.672 2 -1.5 2 -0.828 0 -1.5 -0.895 -1.5 -2 0 -1.105 0.672 -2 1.5 -2 0.828 0 1.5 0.895 1.5 2 z"
           transform="matrix(15.333333,0,0,11.5,414.99999,878.8622)"
           fill="#1890d0"
           id="path19" />
      </g>
    </clipPath>
    <linearGradient
       inkscape:collect="always"
       xlink:href="#linearGradient3764"
       id="linearGradient3085"
       gradientUnits="userSpaceOnUse"
       gradientTransform="matrix(0,-1,1,0,-1.5e-6,47.999998)"
       x1="1"
       x2="47" />
    <linearGradient
       inkscape:collect="always"
       xlink:href="#linearGradient3764"
       id="linearGradient3088"
       gradientUnits="userSpaceOnUse"
       gradientTransform="matrix(0,-1,1,0,-1.5e-6,47.999998)"
       x1="1"
       x2="47" />
    <linearGradient
       inkscape:collect="always"
       xlink:href="#linearGradient3764"
       id="linearGradient3091"
       gradientUnits="userSpaceOnUse"
       gradientTransform="matrix(0,-1,1,0,-1.5e-6,47.999998)"
       x1="1"
       x2="47" />
    <linearGradient
       inkscape:collect="always"
       xlink:href="#linearGradient3764"
       id="linearGradient3094"
       gradientUnits="userSpaceOnUse"
       gradientTransform="matrix(0,-1,1,0,-1.5e-6,47.999998)"
       x1="1"
       x2="47" />
    <linearGradient
       inkscape:collect="always"
       xlink:href="#linearGradient3764"
       id="linearGradient3097"
       gradientUnits="userSpaceOnUse"
       gradientTransform="matrix(0,-1,1,0,-1.5e-6,47.999998)"
       x1="1"
       x2="47" />
    <linearGradient
       inkscape:collect="always"
       xlink:href="#linearGradient3764"
       id="linearGradient3100"
       gradientUnits="userSpaceOnUse"
       gradientTransform="matrix(0,-1,1,0,-1.5e-6,47.999998)"
       x1="1"
       x2="47" />
    <linearGradient
       inkscape:collect="always"
       xlink:href="#linearGradient3764"
       id="linearGradient3103"
       gradientUnits="userSpaceOnUse"
       gradientTransform="matrix(0,-1,1,0,-1.5e-6,47.999998)"
       x1="1"
       x2="47" />
    <linearGradient
       inkscape:collect="always"
       xlink:href="#linearGradient3764"
       id="linearGradient3106"
       gradientUnits="userSpaceOnUse"
       gradientTransform="matrix(0,-1,1,0,-1.5e-6,47.999998)"
       x1="1"
       x2="47" />
  </defs>
  <g
     id="g21">
    <path
       d="m 36.31 5 c 5.859 4.062 9.688 10.831 9.688 18.5 c 0 12.426 -10.07 22.5 -22.5 22.5 c -7.669 0 -14.438 -3.828 -18.5 -9.688 c 1.037 1.822 2.306 3.499 3.781 4.969 c 4.085 3.712 9.514 5.969 15.469 5.969 c 12.703 0 23 -10.298 23 -23 c 0 -5.954 -2.256 -11.384 -5.969 -15.469 c -1.469 -1.475 -3.147 -2.744 -4.969 -3.781 z m 4.969 3.781 c 3.854 4.113 6.219 9.637 6.219 15.719 c 0 12.703 -10.297 23 -23 23 c -6.081 0 -11.606 -2.364 -15.719 -6.219 c 4.16 4.144 9.883 6.719 16.219 6.719 c 12.703 0 23 -10.298 23 -23 c 0 -6.335 -2.575 -12.06 -6.719 -16.219 z"
       opacity="0.05"
       id="path23" />
    <path
       d="m 41.28 8.781 c 3.712 4.085 5.969 9.514 5.969 15.469 c 0 12.703 -10.297 23 -23 23 c -5.954 0 -11.384 -2.256 -15.469 -5.969 c 4.113 3.854 9.637 6.219 15.719 6.219 c 12.703 0 23 -10.298 23 -23 c 0 -6.081 -2.364 -11.606 -6.219 -15.719 z"
       opacity="0.1"
       id="path25" />
    <path
       d="m 31.25 2.375 c 8.615 3.154 14.75 11.417 14.75 21.13 c 0 12.426 -10.07 22.5 -22.5 22.5 c -9.708 0 -17.971 -6.135 -21.12 -14.75 a 23 23 0 0 0 44.875 -7 a 23 23 0 0 0 -16 -21.875 z"
       opacity="0.2"
       id="path27" />
  </g>
  <path
     style="fill:#b0c6de;fill-opacity:1;fill-rule:evenodd;stroke:none"
     d="M 30.15625 5.15625 C 29.709875 5.177625 29.2715 5.23025 28.8125 5.28125 C 20.1645 6.22625 12.9255 9.88625 14.1875 19.15625 C 15.3905 23.14425 21.958 24.937 24 24 C 24.738 21.203 28.6175 15.89525 34.3125 18.53125 C 39.294886 21.39046 43.580784 29.285022 42.8125 37.21875 C 45.443842 33.478833 47 28.920535 47 24 C 47 17.315046 44.147005 11.296045 39.59375 7.09375 C 39.572608 7.08395 39.552422 7.0722325 39.53125 7.0625 C 37.040046 5.9173138 34.34375 5.228 31.5 5.15625 C 31.0565 5.14475 30.602625 5.134875 30.15625 5.15625 z "
     id="path59" />
  <g
     id="g33" />
  <path
     style="fill:#ed8e68;fill-opacity:1;fill-rule:evenodd;stroke:none"
     d="M 24 1 C 15.534526 1 8.1492387 5.5644412 4.15625 12.375 C 3.4554342 18.594143 6.1281265 24.060438 10.59375 26.625 C 16.28475 29.262 23.262 26.797 24 24 C 21.957 24.938 15.3915 23.14525 14.1875 19.15625 C 12.9255 9.88625 20.1645 6.22625 28.8125 5.28125 C 32.669086 4.8597763 36.292084 5.5518911 39.5625 7.0625 C 35.467052 3.2971712 30.002168 1 24 1 z M 32.90625 18.03125 C 33.099479 18.080867 33.301898 18.15038 33.5 18.21875 C 33.296094 18.149144 33.104958 18.081002 32.90625 18.03125 z "
     id="path61" />
  <path
     style="fill:#86dd95;fill-opacity:1;fill-rule:nonzero;stroke:none"
     d="M 31.3125 17.8125 C 27.2725 17.7925 24.602 21.73 24 24 C 24.348 23.883 31.3785 21.9685 32.6875 25.5625 C 33.9495 34.8355 27.8355 41.77375 19.1875 42.71875 C 15.330914 43.140224 11.70855 42.448172 8.4375 40.9375 C 12.532948 44.702829 17.997833 47 24 47 C 31.782465 47 38.65069 43.133915 42.8125 37.21875 C 43.575596 29.290357 39.291847 21.396196 34.3125 18.53125 C 33.2465 18.03525 32.2425 17.8165 31.3125 17.8125 z "
     id="path63" />
  <path
     style="fill:#f3f275;fill-opacity:1;fill-rule:nonzero;stroke:none"
     d="M 4.15625 12.375 C 2.1574971 15.784132 1 19.762474 1 24 C 1 30.700833 3.8653331 36.733879 8.4375 40.9375 C 11.70853 42.448535 15.329395 43.139717 19.1875 42.71875 C 27.8355 41.77375 33.9495 34.8395 32.6875 25.5625 C 32.6215 25.3515 32.5315 25.15275 32.4375 24.96875 C 32.4175 24.93375 32.42525 24.906 32.40625 24.875 C 32.31625 24.723 32.19975 24.60175 32.09375 24.46875 C 32.05475 24.42175 32.031 24.3555 32 24.3125 C 31.875 24.1795 31.72675 24.0505 31.59375 23.9375 C 31.55475 23.9105 31.528 23.87175 31.5 23.84375 C 31.398 23.77775 31.2765 23.7455 31.1875 23.6875 C 31.0855 23.6285 30.988 23.551 30.875 23.5 C 30.801 23.465 30.707 23.43725 30.625 23.40625 C 30.48 23.34725 30.3525 23.297 30.1875 23.25 C 30.1365 23.234 30.08225 23.2035 30.03125 23.1875 C 29.74625 23.1095 29.429 23.07025 29.125 23.03125 C 28.98 23.01125 28.81225 23.011 28.65625 23 C 28.32425 22.973 28.00025 22.9345 27.65625 22.9375 C 27.23025 22.9415 26.801 22.98425 26.375 23.03125 C 25.957 23.07425 25.55525 23.1135 25.15625 23.1875 C 24.40225 23.4925 24.3245 23.72675 24.0625 23.96875 C 24.0705 23.96475 24.03525 23.96475 24.03125 23.96875 C 24.02325 23.97275 24.011 23.996 24 24 C 23.266 26.793 16.28075 29.262 10.59375 26.625 C 6.1281265 24.062341 3.4564251 18.594884 4.15625 12.375 z "
     id="path65" />
  <g
     id="g67">
    <path
       d="m 40.03 7.531 c 3.712 4.084 5.969 9.514 5.969 15.469 0 12.703 -10.297 23 -23 23 c -5.954 0 -11.384 -2.256 -15.469 -5.969 4.178 4.291 10.01 6.969 16.469 6.969 c 12.703 0 23 -10.298 23 -23 0 -6.462 -2.677 -12.291 -6.969 -16.469 z"
       opacity="0.1"
       id="path69" />
  </g>
</svg>

<svg xmlns="http://www.w3.org/2000/svg" viewBox="0 0 48 48"><defs><clipPath><g transform="translate(0,-1004.3622)"><path d="m -24 13 c 0 1.105 -0.672 2 -1.5 2 -0.828 0 -1.5 -0.895 -1.5 -2 0 -1.105 0.672 -2 1.5 -2 0.828 0 1.5 0.895 1.5 2 z" transform="matrix(15.333333,0,0,11.5,414.99999,878.8622)" fill="#1890d0"/></g></clipPath><clipPath><g transform="translate(0,-1004.3622)"><path d="m -24 13 c 0 1.105 -0.672 2 -1.5 2 -0.828 0 -1.5 -0.895 -1.5 -2 0 -1.105 0.672 -2 1.5 -2 0.828 0 1.5 0.895 1.5 2 z" transform="matrix(15.333333,0,0,11.5,414.99999,878.8622)" fill="#1890d0"/></g></clipPath></defs><g><path d="m 36.31 5 c 5.859 4.062 9.688 10.831 9.688 18.5 c 0 12.426 -10.07 22.5 -22.5 22.5 c -7.669 0 -14.438 -3.828 -18.5 -9.688 c 1.037 1.822 2.306 3.499 3.781 4.969 c 4.085 3.712 9.514 5.969 15.469 5.969 c 12.703 0 23 -10.298 23 -23 c 0 -5.954 -2.256 -11.384 -5.969 -15.469 c -1.469 -1.475 -3.147 -2.744 -4.969 -3.781 z m 4.969 3.781 c 3.854 4.113 6.219 9.637 6.219 15.719 c 0 12.703 -10.297 23 -23 23 c -6.081 0 -11.606 -2.364 -15.719 -6.219 c 4.16 4.144 9.883 6.719 16.219 6.719 c 12.703 0 23 -10.298 23 -23 c 0 -6.335 -2.575 -12.06 -6.719 -16.219 z" opacity="0.05"/><path d="m 41.28 8.781 c 3.712 4.085 5.969 9.514 5.969 15.469 c 0 12.703 -10.297 23 -23 23 c -5.954 0 -11.384 -2.256 -15.469 -5.969 c 4.113 3.854 9.637 6.219 15.719 6.219 c 12.703 0 23 -10.298 23 -23 c 0 -6.081 -2.364 -11.606 -6.219 -15.719 z" opacity="0.1"/><path d="m 31.25 2.375 c 8.615 3.154 14.75 11.417 14.75 21.13 c 0 12.426 -10.07 22.5 -22.5 22.5 c -9.708 0 -17.971 -6.135 -21.12 -14.75 a 23 23 0 0 0 44.875 -7 a 23 23 0 0 0 -16 -21.875 z" opacity="0.2"/></g><path d="m 30.16 5.156 c -0.446 0.021 -0.885 0.074 -1.344 0.125 c -8.648 0.945 -15.887 4.605 -14.625 13.875 c 1.203 3.988 7.77 5.781 9.813 4.844 c 0.738 -2.797 4.618 -8.105 10.313 -5.469 c 4.982 2.859 9.268 10.754 8.5 18.688 c 2.631 -3.74 4.188 -8.298 4.188 -13.219 c 0 -6.685 -2.853 -12.704 -7.406 -16.906 c -0.021 -0.01 -0.041 -0.022 -0.063 -0.031 c -2.491 -1.145 -5.188 -1.835 -8.03 -1.906 c -0.444 -0.011 -0.897 -0.021 -1.344 0 z" fill="#b0c6de" fill-rule="evenodd" stroke="none" fill-opacity="1"/><path d="m 24 1 c -8.465 0 -15.851 4.564 -19.844 11.375 c -0.701 6.219 1.972 11.685 6.438 14.25 c 5.691 2.637 12.668 0.172 13.406 -2.625 c -2.043 0.938 -8.609 -0.855 -9.813 -4.844 c -1.262 -9.27 5.977 -12.93 14.625 -13.875 c 3.857 -0.421 7.48 0.271 10.75 1.781 c -4.095 -3.765 -9.56 -6.06 -15.563 -6.06 z m 8.906 17.03 c 0.193 0.05 0.396 0.119 0.594 0.188 c -0.204 -0.07 -0.395 -0.138 -0.594 -0.188 z" fill="#ed8e68" fill-rule="evenodd" stroke="none" fill-opacity="1"/><path d="m 31.31 17.813 c -4.04 -0.02 -6.711 3.918 -7.313 6.188 c 0.348 -0.117 7.378 -2.032 8.688 1.563 c 1.262 9.273 -4.852 16.211 -13.5 17.16 c -3.857 0.421 -7.479 -0.271 -10.75 -1.781 c 4.095 3.765 9.56 6.06 15.563 6.06 c 7.782 0 14.651 -3.866 18.813 -9.781 c 0.763 -7.928 -3.521 -15.823 -8.5 -18.688 c -1.066 -0.496 -2.07 -0.715 -3 -0.719 z" fill="#86dd95" fill-rule="nonzero" stroke="none" fill-opacity="1"/><path d="m 4.156 12.375 c -1.999 3.409 -3.156 7.387 -3.156 11.625 c 0 6.701 2.865 12.734 7.438 16.938 c 3.271 1.511 6.892 2.202 10.75 1.781 c 8.648 -0.945 14.762 -7.879 13.5 -17.16 c -0.066 -0.211 -0.156 -0.41 -0.25 -0.594 c -0.02 -0.035 -0.012 -0.063 -0.031 -0.094 c -0.09 -0.152 -0.206 -0.273 -0.313 -0.406 c -0.039 -0.047 -0.063 -0.113 -0.094 -0.156 c -0.125 -0.133 -0.273 -0.262 -0.406 -0.375 c -0.039 -0.027 -0.066 -0.066 -0.094 -0.094 c -0.102 -0.066 -0.224 -0.098 -0.313 -0.156 c -0.102 -0.059 -0.2 -0.137 -0.313 -0.188 c -0.074 -0.035 -0.168 -0.063 -0.25 -0.094 c -0.145 -0.059 -0.273 -0.109 -0.438 -0.156 c -0.051 -0.016 -0.105 -0.047 -0.156 -0.063 c -0.285 -0.078 -0.602 -0.117 -0.906 -0.156 c -0.145 -0.02 -0.313 -0.02 -0.469 -0.031 c -0.332 -0.027 -0.656 -0.066 -1 -0.063 c -0.426 0.004 -0.855 0.047 -1.281 0.094 c -0.418 0.043 -0.82 0.082 -1.219 0.156 c -0.754 0.305 -0.832 0.539 -1.094 0.781 c 0.008 -0.004 -0.027 -0.004 -0.031 0 c -0.008 0.004 -0.02 0.027 -0.031 0.031 c -0.734 2.793 -7.719 5.262 -13.406 2.625 c -4.466 -2.563 -7.137 -8.03 -6.438 -14.25 z" fill="#f3f275" fill-rule="nonzero" stroke="none" fill-opacity="1"/><g><path d="m 40.03 7.531 c 3.712 4.084 5.969 9.514 5.969 15.469 0 12.703 -10.297 23 -23 23 c -5.954 0 -11.384 -2.256 -15.469 -5.969 4.178 4.291 10.01 6.969 16.469 6.969 c 12.703 0 23 -10.298 23 -23 0 -6.462 -2.677 -12.291 -6.969 -16.469 z" opacity="0.1"/></g></svg>
